res/logo.svg

<svg xmlns="http://www.w3.org/2000/svg" width="500" height="500" fill="none" viewBox="0 0 500 500">
  <path fill="#4b32c3" fill-rule="evenodd" d="M379.277 49.005 489.142 240.07h-.002c3.994 6.908 3.994 15.009 0 21.915l-109.865 189.81c-3.989 6.91-11.362 10.336-19.343 10.336h-219.73c-7.98 0-15.356-3.532-19.346-10.44L10.993 262.19c-3.99-6.91-3.99-15.631 0-22.54L120.856 49.005C124.846 42.097 132.222 37 140.202 37h219.732c7.981 0 15.352 5.097 19.343 12.005m14.764 289.758c2.436-1.407 4.126-4.006 4.126-6.814v-33.548l12.125-8.787a20.002 20.002 0 0 0 2.601-30.138l-.42-.432.486-.091a20 20 0 0 0 15.295-25.935l-10.212-30.885a20 20 0 0 0-19.875-13.702v-17.909c0-2.811-1.713-5.407-4.151-6.813l-60.742-35.005a20 20 0 0 0-11.509-17.119l-30.387-14.198a19.93 19.93 0 0 0-14.235-1.03l-23.186-13.361a7.95 7.95 0 0 0-7.914 0l-32.467 18.726-9.276-4.334c-9.924-4.637-21.732-.428-26.485 9.441l-10.351 21.489-61.357 35.391c-2.436 1.406-4.116 4.002-4.116 6.813v93.731L73.204 324.02a20 20 0 0 0 9.61 26.825l30.636 14.197c9.217 4.272 20.034.93 25.322-7.468l107.409 61.9a7.96 7.96 0 0 0 7.916 0z" clip-rule="evenodd"/>
  <path fill="#8080f2" d="M169.644 341.456a4 4 0 0 0 1.922 5.365l30.636 14.197a4 4 0 0 0 5.287-1.897l4.915-10.23q.074-.128.139-.262l104.361-217.192a4 4 0 0 0-1.912-5.356l-30.387-14.198a4 4 0 0 0-5.297 1.889zM87.62 330.963a4 4 0 0 0 1.921 5.365l30.636 14.197a4 4 0 0 0 5.287-1.896l104.362-217.192a4 4 0 0 0-1.912-5.356l-30.387-14.198a4 4 0 0 0-5.297 1.889zm222.193-126.186 27.424 12.612-4.41-30.066a4.002 4.002 0 0 1 3.958-4.581h33.625a4 4 0 0 1 3.962 4.551l-4.214 30.295 27.192-12.796a4 4 0 0 1 5.501 2.364l10.212 30.885a4.002 4.002 0 0 1-3.059 5.187l-29.787 5.597 21.206 21.806a4 4 0 0 1-.521 6.027l-27.148 19.677a4 4 0 0 1-5.871-1.345l-14.322-26.654-13.712 26.83a4.002 4.002 0 0 1-5.91 1.418l-27.148-19.676a4 4 0 0 1-.572-5.974l20.895-22.302-29.409-5.401a4.002 4.002 0 0 1-3.093-5.134l9.714-30.886a4.004 4.004 0 0 1 5.487-2.434"/>
</svg>

<svg width="500" height="500" viewBox="0 0 500 500" fill="none" xmlns="http://www.w3.org/2000/svg">
<path fill-rule="evenodd" clip-rule="evenodd" d="M379.277 49.0046L489.142 240.071H489.14C493.134 246.979 493.134 255.08 489.14 261.986L379.275 451.795C375.286 458.705 367.913 462.131 359.932 462.131H140.202C132.222 462.131 124.846 458.599 120.856 451.691L10.9928 262.19C7.00241 255.28 7.00241 246.559 10.9928 239.65L120.856 49.0046C124.846 42.0968 132.222 37 140.202 37H359.934C367.915 37 375.286 42.0968 379.277 49.0046ZM394.041 338.763C396.477 337.356 398.167 334.757 398.167 331.949V298.401L410.292 289.614C414.993 286.206 417.982 280.924 418.481 275.139C418.98 269.355 416.941 263.639 412.893 259.476L412.473 259.044L412.959 258.953C418.628 257.887 423.562 254.426 426.492 249.457C429.423 244.488 430.065 238.495 428.254 233.018L418.042 202.133C416.245 196.699 412.207 192.295 406.948 190.036C404.148 188.833 401.145 188.299 398.167 188.431V170.522C398.167 167.711 396.454 165.115 394.016 163.709L333.274 128.704C333.177 126.768 332.798 124.839 332.135 122.98C330.339 117.949 326.605 113.846 321.765 111.585L291.378 97.3875C286.74 95.2208 281.691 94.9857 277.143 96.3573L253.957 82.9957C252.753 82.3045 251.389 81.9407 250 81.9407C248.611 81.9407 247.247 82.3045 246.043 82.9957L213.576 101.722L204.3 97.3875C194.376 92.7509 182.568 96.9599 177.815 106.829L167.464 128.318L106.107 163.709C103.671 165.115 101.991 167.711 101.991 170.522V264.253L73.2043 324.02C70.8801 328.846 70.5885 334.402 72.3948 339.444C74.2011 344.486 77.9543 348.593 82.8139 350.845L113.45 365.042C122.667 369.314 133.484 365.972 138.772 357.574L246.181 419.474C247.386 420.164 248.75 420.527 250.139 420.527C251.528 420.527 252.892 420.164 254.097 419.474L394.041 338.763Z" fill="#4B32C3"/>
<path d="M169.644 341.456C169.179 342.421 169.121 343.532 169.482 344.541C169.843 345.549 170.594 346.37 171.566 346.821L202.202 361.018C204.186 361.938 206.542 361.093 207.489 359.121L212.404 348.891C212.453 348.806 212.5 348.718 212.543 348.629L316.904 131.437C317.367 130.474 317.425 129.366 317.066 128.36C316.707 127.353 315.96 126.533 314.992 126.081L284.605 111.883C282.62 110.956 280.259 111.798 279.308 113.772L169.644 341.456Z" fill="#8080F2"/>
<path d="M87.6193 330.963C87.1545 331.928 87.0962 333.04 87.4575 334.048C87.8187 335.056 88.5694 335.878 89.5413 336.328L120.177 350.525C122.162 351.445 124.517 350.6 125.464 348.629L229.826 131.437C230.289 130.474 230.347 129.366 229.988 128.36C229.629 127.353 228.882 126.533 227.914 126.081L197.527 111.883C195.542 110.956 193.181 111.798 192.23 113.772L87.6193 330.963Z" fill="#8080F2"/>
<path d="M309.813 204.777L337.237 217.389L332.827 187.323C332.659 186.173 332.998 185.006 333.758 184.127C334.518 183.248 335.623 182.742 336.785 182.742H370.41C371.567 182.742 372.667 183.243 373.427 184.116C374.186 184.988 374.531 186.147 374.372 187.293L370.158 217.588L397.35 204.792C398.386 204.305 399.581 204.285 400.632 204.736C401.684 205.188 402.492 206.069 402.851 207.156L413.063 238.041C413.425 239.136 413.297 240.335 412.711 241.329C412.125 242.322 411.138 243.015 410.004 243.228L380.217 248.825L401.423 270.631C402.232 271.463 402.64 272.607 402.54 273.764C402.44 274.921 401.843 275.977 400.902 276.658L373.754 296.335C372.819 297.012 371.638 297.253 370.513 296.995C369.388 296.737 368.429 296.006 367.883 294.99L353.561 268.336L339.849 295.166C339.317 296.206 338.357 296.962 337.22 297.235C336.084 297.508 334.886 297.27 333.939 296.584L306.791 276.908C305.861 276.234 305.265 275.193 305.156 274.05C305.047 272.907 305.434 271.772 306.219 270.934L327.114 248.632L297.705 243.231C296.578 243.024 295.593 242.343 295.001 241.361C294.41 240.379 294.268 239.19 294.612 238.097L304.326 207.211C304.671 206.116 305.47 205.221 306.52 204.755C307.57 204.289 308.769 204.298 309.813 204.777Z" fill="#8080F2"/>
</svg>
